X: 14
T: The Mason's Apron
R: reel
M: 4/4
L: 1/8
K: Amaj
ed|cAAA ABAF|EFAB c2 BA|dBBB BcBA|Bcde fefg|
aAAA ABAF|EFAB c2 BA|dcde fgaf|edcB A2||
e2|cAeA fAeA|ceag fedc|dBfB gBaB|dfba gfed|
cAeA fAeF|EFAB c2 BA|dcde fgaf|edcB A2||


Tune 74	Setting 23630

